X:1
T: The Bottom of the Punch Bowl
P: Simplified version
C:James Oswald
R:Reel
Q: 232
K:D
M:4/4
L:1/8
FE|D2D2 d3e|d2D2 FG AF|E2e2 ef gf|ed cB AG FE|D2D2 d3e|fe dc d3A|Bcd2 A3G|F2D2 D2FE|
D2D2 d3e|d2D2 FG AF|E2e2 ef gf|ed cB AG FE|D2D2 d3e|fe dc d3A|Bcd2 A3G|F2D2 D2de|
fe dB AB de|fe dc d3A|B2e2 e2de|f2e2 e2de|fe dB AB de|fa ef d2A2|Bc dB AB AG|F2D2 D2de|
fe dB AB de|fe dc d3A|B2e2 e2de|f2e2 e2de|fe dB AB de|fa ef d2A2|Bc dB AB AG|F2D2 D2||
